img/icon-updated-5.svg

<svg fill="none" height="16" viewBox="0 0 16 16" width="16" xmlns="http://www.w3.org/2000/svg"><path clip-rule="evenodd" d="m1.5 8.00195c0-1.7239.68482-3.3772 1.90381-4.59619 1.21898-1.21899 2.87228-1.90381 4.59619-1.90381s3.3772.68482 4.5962 1.90381 1.9038 2.87229 1.9038 4.59619c0 1.72391-.6848 3.37725-1.9038 4.59615-1.219 1.219-2.87229 1.9039-4.5962 1.9039s-3.37721-.6849-4.59619-1.9039c-1.21899-1.2189-1.90381-2.87224-1.90381-4.59615zm6.5-7.99999687c-2.12173 0-4.15656.84285487-5.65685 2.34314687-1.500295 1.50029-2.34315 3.53512-2.34315 5.65685 0 2.12175.842855 4.15655 2.34315 5.65685 1.50029 1.5003 3.53512 2.3432 5.65685 2.3432 2.1217 0 4.1566-.8429 5.6569-2.3432 1.5002-1.5003 2.3431-3.5351 2.3431-5.65685 0-2.12173-.8429-4.15656-2.3431-5.65685-1.5003-1.500292-3.5352-2.34314687-5.6569-2.34314688zm.5 4.74999687c0-.19891-.07902-.38967-.21967-.53033-.14065-.14065-.33142-.21967-.53033-.21967s-.38968.07902-.53033.21967c-.14065.14066-.21967.33142-.21967.53033v3.5c.00003.14978.04492.29612.12886.42017.08395.12404.20311.22011.34214.27583l2.5 1c.1831.06685.3851.05985.5631-.01967.178-.07949.3181-.22518.3905-.40618.0724-.18101.0715-.3831-.0025-.56345-.074-.18036-.2154-.32479-.3941-.4027l-2.028-.812z" fill="#000" fill-rule="evenodd"/></svg>

<svg width="16" height="16" viewBox="0 0 16 16" fill="none" xmlns="http://www.w3.org/2000/svg">
<path fill-rule="evenodd" clip-rule="evenodd" d="M1.5 8.00195C1.5 6.27805 2.18482 4.62475 3.40381 3.40576C4.62279 2.18677 6.27609 1.50195 8 1.50195C9.72391 1.50195 11.3772 2.18677 12.5962 3.40576C13.8152 4.62475 14.5 6.27805 14.5 8.00195C14.5 9.72586 13.8152 11.3792 12.5962 12.5981C11.3772 13.8171 9.72391 14.502 8 14.502C6.27609 14.502 4.62279 13.8171 3.40381 12.5981C2.18482 11.3792 1.5 9.72586 1.5 8.00195V8.00195ZM8 0.00195313C5.87827 0.00195313 3.84344 0.844808 2.34315 2.3451C0.842855 3.84539 0 5.88022 0 8.00195C0 10.1237 0.842855 12.1585 2.34315 13.6588C3.84344 15.1591 5.87827 16.002 8 16.002C10.1217 16.002 12.1566 15.1591 13.6569 13.6588C15.1571 12.1585 16 10.1237 16 8.00195C16 5.88022 15.1571 3.84539 13.6569 2.3451C12.1566 0.844808 10.1217 0.00195313 8 0.00195312V0.00195313ZM8.5 4.75195C8.5 4.55304 8.42098 4.36228 8.28033 4.22162C8.13968 4.08097 7.94891 4.00195 7.75 4.00195C7.55109 4.00195 7.36032 4.08097 7.21967 4.22162C7.07902 4.36228 7 4.55304 7 4.75195V8.25195C7.00003 8.40173 7.04492 8.54807 7.12886 8.67212C7.21281 8.79616 7.33197 8.89223 7.471 8.94795L9.971 9.94795C10.1541 10.0148 10.3561 10.0078 10.5341 9.92828C10.7121 9.84879 10.8522 9.7031 10.9246 9.5221C10.997 9.34109 10.9961 9.139 10.9221 8.95865C10.8481 8.77829 10.7067 8.63386 10.528 8.55595L8.5 7.74395V4.75195Z" fill="black"/>
</svg>
